src/main/resources/img/object/synonym/SynonymErr_dark.svg

<?xml version="1.0" encoding="UTF-8"?>
<svg width="16" height="16" version="1.1" viewBox="0 0 16 16" xml:space="preserve" xmlns="http://www.w3.org/2000/svg"><path transform="translate(18.805 -2.1102)" d="m-16.805 7.1102h12v8h-12z" fill="#fff" stroke-width=".8165"/><g><path d="m2 5v8h6.0391a4.5 4.5 0 0 1-0.039062-0.5 4.5 4.5 0 0 1 4.5-4.5 4.5 4.5 0 0 1 1.5 0.25781v-3.2578h-12z" fill="#f2f2f2"/><path d="m1 4v10h7.2656a4.5 4.5 0 0 1-0.22656-1h-2.0391v-2h2.2676a4.5 4.5 0 0 1 0.50391-1h-2.7715v-2h3v1.6914a4.5 4.5 0 0 1 1-0.91797v-0.77344h3v0.029297a4.5 4.5 0 0 1 1 0.23047v-4.2598h-13zm1 1h3v2h-3v-2zm4 0h3v2h-3v-2zm4 0h3v2h-3v-2zm-8 3h3v2h-3v-2zm0 3h3v2h-3v-2z" fill="#b1b2b4"/><path d="m2 2v2h12v4.2578a4.5 4.5 0 0 1 1 0.50195v-6.7598h-13z" fill="#73a9d8"/></g><g transform="translate(0 .0012658)" fill-rule="evenodd">
        
        <path d="m13 14v1h-1v-1zm0-4v3h-1v-3z" fill="#ffffff"/>
    </g><g fill-rule="evenodd">
        <path d="m16 12.5c0 1.933-1.567 3.5-3.5 3.5s-3.5-1.567-3.5-3.5 1.567-3.5 3.5-3.5 3.5 1.567 3.5 3.5" fill="#e05555"/>
        <path d="m13 14v1h-1v-1zm0-4v3h-1v-3z" fill="#ffffff"/>
    </g></svg>

<?xml version="1.0" encoding="UTF-8" standalone="no"?>
<svg
        width="16"
        height="16"
        version="1.1"
        viewBox="0 0 16 16"
        xml:space="preserve"
        id="svg21388"
        sodipodi:docname="SynonymErr_dark.svg"
        inkscape:version="1.2.2 (732a01da63, 2022-12-09)"
        xmlns:inkscape="http://www.inkscape.org/namespaces/inkscape"
        xmlns:sodipodi="http://sodipodi.sourceforge.net/DTD/sodipodi-0.dtd"
        xmlns="http://www.w3.org/2000/svg"
><defs
     id="defs21392" /><sodipodi:namedview
     id="namedview21390"
     pagecolor="#ffffff"
     bordercolor="#000000"
     borderopacity="0.25"
     inkscape:showpageshadow="2"
     inkscape:pageopacity="0.0"
     inkscape:pagecheckerboard="0"
     inkscape:deskcolor="#d1d1d1"
     showgrid="true"
     inkscape:zoom="32.09375"
     inkscape:cx="1.916261"
     inkscape:cy="9.5345667"
     inkscape:window-width="2560"
     inkscape:window-height="1369"
     inkscape:window-x="-8"
     inkscape:window-y="-8"
     inkscape:window-maximized="1"
     inkscape:current-layer="svg21388"><inkscape:grid
       type="xygrid"
       id="grid21517" /></sodipodi:namedview><path
     transform="translate(18.805 -2.1102)"
     d="m-16.805 7.1102h12v8h-12z"
     fill="#fff"
     stroke-width=".8165"
     id="path21380" /><path
     id="path21382"
     d="M 2 5 L 2 13 L 8.0390625 13 A 4.5 4.5 0 0 1 8 12.5 A 4.5 4.5 0 0 1 12.5 8 A 4.5 4.5 0 0 1 14 8.2578125 L 14 5 L 2 5 z "
     style="fill:#f2f2f2;fill-opacity:1" /><path
     id="path21384"
     d="M 1 4 L 1 14 L 8.265625 14 A 4.5 4.5 0 0 1 8.0390625 13 L 6 13 L 6 11 L 8.2675781 11 A 4.5 4.5 0 0 1 8.7714844 10 L 6 10 L 6 8 L 9 8 L 9 9.6914062 A 4.5 4.5 0 0 1 10 8.7734375 L 10 8 L 13 8 L 13 8.0292969 A 4.5 4.5 0 0 1 14 8.2597656 L 14 4 L 1 4 z M 2 5 L 5 5 L 5 7 L 2 7 L 2 5 z M 6 5 L 9 5 L 9 7 L 6 7 L 6 5 z M 10 5 L 13 5 L 13 7 L 10 7 L 10 5 z M 2 8 L 5 8 L 5 10 L 2 10 L 2 8 z M 2 11 L 5 11 L 5 13 L 2 13 L 2 11 z "
     style="fill:#b1b2b4;fill-opacity:1" /><path
     id="path21386"
     d="M 2 2 L 2 4 L 14 4 L 14 8.2578125 A 4.5 4.5 0 0 1 15 8.7597656 L 15 2 L 2 2 z "
     style="fill:#73a9d8;fill-opacity:1" /><g
     transform="translate(0,0.00126584)"
     fill-rule="evenodd"
     id="g27375">
        
        <path
   d="m 13,14 v 1 h -1 v -1 z m 0,-4 v 3 h -1 v -3 z"
   fill="#ffffff"
   id="path27373" />
    </g><g
     fill-rule="evenodd"
     id="g27375-9">
        <path
   d="M 16,12.5 C 16,14.433 14.433,16 12.5,16 10.567,16 9,14.433 9,12.5 9,10.567 10.567,9 12.5,9 14.433,9 16,10.567 16,12.5"
   fill="#e05555"
   id="path27371" />
        <path
   d="m 13,14 v 1 h -1 v -1 z m 0,-4 v 3 h -1 v -3 z"
   fill="#ffffff"
   id="path27373-0" />
    </g></svg>
